NotoEmoji/emoji_u1f530.svg

<svg enable-background="new 0 0 128 128" viewBox="0 0 128 128" xmlns="http://www.w3.org/2000/svg"><path d="m61.5 34-39-29.12c-2.62-2.09-6.5-.23-6.5 3.13v82.07c0 1.22.55 2.36 1.5 3.12l44 29.92c.73.58 1.61.88 2.5.88v-89.12c-.88 0-1.77-.29-2.5-.88z" fill="#fce438"/><path d="m105.5 4.88-39 29.12c-.73.58-1.61.88-2.5.88v89.12c.88 0 1.77-.29 2.5-.88l44-29.92c.95-.76 1.5-1.91 1.5-3.12v-82.07c0-3.36-3.88-5.22-6.5-3.13z" fill="#26a69a"/><g fill="#fff"><path d="m20.75 19.81c1.4 1.32 29.03 21.24 29.03 21.24s2.83 2.06 4.72-.17c1.83-2.14.25-4.43-1.24-5.45s-25.1-18.67-26.7-19.53c-1.54-.93-4.13-.52-5.5.6s-1.35 2.35-.31 3.31z" opacity=".6"/><path d="m73.57 42.02c1.71-.87 20.91-15.79 20.91-15.79s2.89-1.97 1.43-4.5c-1.4-2.44-4.09-1.73-5.55-.67s-17.17 12.95-18.51 14.17c-1.4 1.14-1.88 3.71-1.29 5.38.6 1.67 1.76 2.07 3.01 1.41z" opacity=".3"/><circle cx="100.61" cy="16.97" opacity=".3" r="3.3"/></g></svg>

<?xml version="1.0" encoding="utf-8"?>
<!-- Generator: Adobe Illustrator 25.2.3, SVG Export Plug-In . SVG Version: 6.00 Build 0)  -->
<svg version="1.1" id="_x31_" xmlns="http://www.w3.org/2000/svg" xmlns:xlink="http://www.w3.org/1999/xlink" x="0px" y="0px"
	 viewBox="0 0 128 128" style="enable-background:new 0 0 128 128;" xml:space="preserve">
<g>
	<path style="fill:#FCE438;" d="M61.5,34l-39-29.12C19.88,2.79,16,4.65,16,8.01v82.07c0,1.22,0.55,2.36,1.5,3.12l44,29.92
		c0.73,0.58,1.61,0.88,2.5,0.88V34.88C63.12,34.88,62.23,34.59,61.5,34z"/>
	<path style="fill:#26A69A;" d="M105.5,4.88L66.5,34c-0.73,0.58-1.61,0.88-2.5,0.88V124c0.88,0,1.77-0.29,2.5-0.88l44-29.92
		c0.95-0.76,1.5-1.91,1.5-3.12V8.01C112,4.65,108.12,2.79,105.5,4.88z"/>
</g>
<path style="opacity:0.6;fill:#FFFFFF;enable-background:new    ;" d="M20.75,19.81c1.4,1.32,29.03,21.24,29.03,21.24
	s2.83,2.06,4.72-0.17c1.83-2.14,0.25-4.43-1.24-5.45c-1.49-1.02-25.1-18.67-26.7-19.53c-1.54-0.93-4.13-0.52-5.5,0.6
	S19.71,18.85,20.75,19.81z"/>
<g>
	<path style="opacity:0.3;fill:#FFFFFF;enable-background:new    ;" d="M73.57,42.02c1.71-0.87,20.91-15.79,20.91-15.79
		s2.89-1.97,1.43-4.5c-1.4-2.44-4.09-1.73-5.55-0.67c-1.46,1.06-17.17,12.95-18.51,14.17c-1.4,1.14-1.88,3.71-1.29,5.38
		C71.16,42.28,72.32,42.68,73.57,42.02z"/>
	<circle style="opacity:0.3;fill:#FFFFFF;enable-background:new    ;" cx="100.61" cy="16.97" r="3.3"/>
</g>
</svg>
